Crule-dark/status/symbolic/org.gnome.Shell.Extensions.GSConnect-symbolic.svg

<svg width="16" height="16" version="1.1" xmlns="http://www.w3.org/2000/svg">
 <path d="m4 1c-1.662 0-3 1.338-3 3v1h2v-1c0-0.554 0.446-1 1-1h8c0.554 0 1 0.446 1 1v6c0 0.554-0.446 1-1 1h-3v2h3c1.662 0 3-1.338 3-3v-6c0-1.662-1.338-3-3-3h-8zm-1.7188 5c-0.71002 0-1.2812 0.57128-1.2812 1.2812v7.4375c0 0.71002 0.57128 1.2812 1.2812 1.2812h4.4375c0.71002 0 1.2812-0.57128 1.2812-1.2812v-7.4375c0-0.71002-0.57128-1.2812-1.2812-1.2812h-4.4376zm0.12891 1h0.58984c0 0.554 0.446 1 1 1h1c0.554 0 1-0.446 1-1h0.58984c0.22771 0 0.41016 0.18245 0.41016 0.41016v7.1094c0 0.2666-0.21387 0.48047-0.48047 0.48047h-4.0391c-0.2666 0-0.48047-0.21387-0.48047-0.48047v-7.1094c0-0.22771 0.18245-0.41016 0.41016-0.41016zm6.5898 7v2h4v-1c0-0.554-0.446-1-1-1h-3z" fill="#333333"/>
</svg>

<svg width="16" height="16" xmlns="http://www.w3.org/2000/svg"><path d="M4 1C2.338 1 1 2.338 1 4v1h2V4c0-.554.446-1 1-1h8c.554 0 1 .446 1 1v6c0 .554-.446 1-1 1H9v2h3c1.662 0 3-1.338 3-3V4c0-1.662-1.338-3-3-3H4zM2.281 6C1.571 6 1 6.571 1 7.281v7.438c0 .71.571 1.28 1.281 1.28H6.72c.71 0 1.28-.57 1.28-1.28V7.28C8 6.571 7.43 6 6.72 6H2.28zm.13 1H3c0 .554.446 1 1 1h1c.554 0 1-.446 1-1h.59c.227 0 .41.182.41.41v7.11c0 .266-.214.48-.48.48H2.48a.479.479 0 01-.48-.48V7.41c0-.228.182-.41.41-.41zM9 14v2h4v-1c0-.554-.446-1-1-1H9z" fill="#dedede"/></svg>
